X:1
T:Title
%%score { ( 1 3 ) | ( 2 4 ) }
L:1/8
Q:1/4=132
M:2/2
K:F
V:1 treble nm="Grand Piano"
V:3 treble 
V:2 bass 
V:4 bass 
V:1
 [CF]4 [CA]3 [CB] | c>dcB A2 [DB]2 | A2 F2 G2 E2 | [CF]6 [FA]2 | [EB]2 [FA]2 G2 [DF]2 | %5
 [EG]6 [EG]2 | A>GAB c2 [Fd]2 | [Ec]4 [D=B]4 | [Ec]8 | [Fc]4 [Fc]2 [Fc]2 | A3 G F2 [FA]2 | %11
 [EB]2 [FA]2 G2 [DF]2 |[M:3/4] [EG]6 |[M:1/4] z2 |[M:4/4] z4 z2 F2 | [DB]2 [DB]2 [DB]2 [DB]2 | %16
[M:3/4] [CA]6 |[M:1/4] [CA]2 |[M:4/4] [CG]2 [EG]2 [EG][FA] [GB]>[EG] |[M:3/4] c2- [Ec-]2 [Fc]2 | %20
[M:1/4] [Fc]2 |[M:4/4] d2 c2 [EB]2 [FA]2 | G6 G2 | F8 |] %24
V:2
 [F,A,]4 F,3 [F,G,] | .A,4 z4 | C,2- [C,A,]2 B,2 G,2 | [F,A,]6 [F,C]2 | %4
 [G,C]2 [F,C]2 [E,C]2 [D,=B,]2 | [C,C]6 [C,C]2 | C3 B, A,2 [D,A,]2 | G,4 [G,,G,]4 | [C,G,]8 | %9
 [F,A,]4 [F,A,]2 [F,A,]2 | C3 B, A,2 [F,C]2 | C2- [F,C-]2 [E,C]2 [D,=B,]2 |[M:3/4] [C,C]6 | %13
[M:1/4] [C,C]2 |[M:4/4] F,2 G,2 A,2 F,2 | [B,,F,]6 [B,,F,]2 |[M:3/4] F,2 [F,C]2 [F,A,]2 | %17
[M:1/4] F,2 |[M:4/4] C,2- [C,-G,]2 [C,C]2 [C,B,]2 |[M:3/4] [F,A,]2 G,2 [F,A,]2 |[M:1/4] [F,A,]2 | %21
[M:4/4] B,2 [A,C]2 [G,C]2 [F,C]2 | [C,C]6 [C,B,]2 | [F,,A,]8 |] %24
V:3
 x8 | C8 | C4 C4 | x8 | x8 | x8 | F8 | x8 | x8 | x8 | F4 z4 | x8 |[M:3/4] x6 |[M:1/4] x2 | %14
[M:4/4] x8 | x8 |[M:3/4] x6 |[M:1/4] x2 |[M:4/4] x8 |[M:3/4] F2 z2 z2 |[M:1/4] x2 |[M:4/4] F4 z4 | %22
 F4 E4 | x8 |] %24
V:4
 x8 | F,->[F,-B,][F,-A,][F,G,] F,2 [B,,F,]2 | .F,4 C,4 | x8 | x8 | x8 | F,8 | x8 | x8 | x8 | F,8 | %11
 .G,4 z4 |[M:3/4] x6 |[M:1/4] x2 |[M:4/4] x8 | x8 |[M:3/4] x6 |[M:1/4] x2 |[M:4/4] E,2 z2 z4 | %19
[M:3/4] x6 |[M:1/4] x2 |[M:4/4] x8 | x8 | x8 |] %24

